X: 30114
T: Old Black Joe
R: jig
M: 6/8
K: Gmajor
DS|:D2 G GFG|A2 B cBA|dBG DGc|BcA [1 G2 D:|2 G3||
|:GFG A2d|A2d AFD|GFG B2A|GFE D2 C|
B,DD G2G|A2B cBA|dBG DGc|BcA [1 G3:|2 G2SD||

